X:1019
T:Hennessy's
O:ireland
C:Dave Hennessy
R:reel
S:Serge Grando
D:Arcady
Z:id:hn-reel-188
M:C|
K:D
ag|:f2df edcA|B2dB ABde|fd~d2 edcA|B2dB ABde|
fedf edcA|BcdB AGFE|Dddc defd|1 edcA dfag:|2 edce dBcA||
|:FBBA Bcde|~f3d edcA|FBBA Bcde|f2df edcA|
B2FB ~B2GB|BcdB cBAc|BG~G2 Bcde|1 f2ec dBcA:|2 faec dfag||
